X: 2
T: An Comhra Donn
R: hornpipe
M: 4/4
L: 1/8
K: Dmaj
FG|ABAG FAde|fgfe dcdA|BcdB AFDE|FEED E2FG|ABAG FAde|fgfe dcdA|BcdB AFEG|F2D2 D2:|fg|agfd gfec|dcde fdAF|GA BG FADF|Efgf e2fg||agfd gfec|dcde fdAF|GABG FAEG|F2D2 D2|:


Tune 1636	Setting 1636

